X: 1
T: L\"andler EbBb chords
T:Hanny Christen. Bd.VIII Zug, Luzern, Uri I. S.348 (LD11391) orig. Eb,Bb-Dur
T: T\"anze aus Altdorf (Uri)
M:3/4
L:1/8
K:Eb %%MIDI gchordon
"Eb"e2d2c2 | E4G2 | BB Be G2 | "Bb7"BB Bd A2 | e2d2c2 | BB Bd A2 | AB dA Bd | "Eb"ee eB G2 | e2d2c2 | E4G2 | 
BB Be G2 | "Bb7"BB Bd A2 | e2d2c2 | BB Bd A2 | AB g2f2 | "Eb"e3ee2 | e2z2z2 :: [K:Bb] "Bb"Bd GG Gd | FF Fd BB | 
"F7"Ae GG Ge | FF Fe AA | Ae GG Ge |1 FF Fe AA | "Bb"Bd GG Gd | FF Fd BB :|2 F2 d'3c' | "Bb"b3bb2 | b2z2z2 |] 

